X:814
T:A La Mode de France
S:Playford
Z:Nigel Gatherer
M:4/4
L:1/4
K:Dm
a | a f g a | f>e d a | a f g a | f2 f :|
f | e A d e | f>e d f | e A d e | f3 
f | e A d e | f e/f/ d a | a f g a | f3 ||
